project/images/official/editable/540.svg

<?xml version="1.0" encoding="UTF-8" standalone="no"?>
<svg
   width="37.565792pt"
   height="36.120956pt"
   viewBox="0 0 37.565792 36.120957"
   version="1.1"
   id="svg3513"
   xmlns="http://www.w3.org/2000/svg"
   xmlns:svg="http://www.w3.org/2000/svg">
  <defs
     id="defs3517" />
  <g
     id="layer2"
     style="display:inline"
     transform="matrix(0.74036996,0,0,1,-10.999472,0.17234229)" />
  <rect
     style="display:inline;fill:#ffffff;stroke:none;stroke-width:0;stroke-linecap:square;stroke-miterlimit:4;stroke-dasharray:none;stroke-opacity:1"
     id="rect3621"
     width="37.565792"
     height="36.120956"
     x="0"
     y="0" />
  <rect
     style="display:inline;fill:none;stroke:#000000;stroke-width:0.131352;stroke-linecap:square;stroke-miterlimit:4;stroke-dasharray:none;stroke-opacity:1"
     id="rect3621-4"
     width="36.712025"
     height="35.267181"
     x="0.4268837"
     y="0.42688751" />
  <g
     id="surface1"
     transform="translate(2.9567243,2.937634)">
    <path
       style="fill:#211e1e;fill-opacity:1;fill-rule:nonzero;stroke:none"
       d="M 30.957031,14.011719 31.324219,14.601562 6.648438,28.84375 c -0.058594,0.03516 -0.171876,0.09375 -0.222657,0.128906 -0.167969,0.08594 -0.347656,0.167969 -0.527343,0.222656 -0.199219,0.05859 -0.417969,0.09375 -0.617188,0.101563 -0.238281,0 -0.460938,-0.02734 -0.691406,-0.08594 C 4.417969,29.160156 4.25,29.09375 4.085938,29.007812 3.914062,28.914062 3.761719,28.808594 3.625,28.675781 3.53125,28.582031 3.4375,28.484375 3.351562,28.363281 3.324219,28.304688 3.265625,28.230469 3.230469,28.167969 l 0.539062,-0.304688 c 0.027344,0.05078 0.070313,0.117188 0.101563,0.160157 0.105468,0.136718 0.234375,0.257812 0.371094,0.359374 0.167968,0.128907 0.363281,0.199219 0.5625,0.253907 0.160156,0.03516 0.316406,0.05078 0.476562,0.03906 0.128906,-0.01172 0.28125,-0.04687 0.394531,-0.08203 0.136719,-0.03906 0.289063,-0.101562 0.425781,-0.167969 l 0.257813,-0.164062 10.796875,-6.253907 -0.1875,-0.671874 c -0.01563,-0.04688 -0.02344,-0.128907 -0.03125,-0.191407 -0.0078,-0.06641 -0.0078,-0.132812 0.01563,-0.1875 0.0078,-0.05859 0.01953,-0.125 0.04297,-0.1875 0.02734,-0.109375 0.09375,-0.203125 0.179687,-0.292969 0.05078,-0.05078 0.08594,-0.101562 0.152344,-0.140624 L 18.5,19.394531 11.101562,17.640625 10.871094,17.582031 c -0.144532,-0.03516 -0.335938,-0.08594 -0.472656,-0.128906 -0.152344,-0.05078 -0.296876,-0.125 -0.433594,-0.195313 C 9.742188,17.136719 9.511719,16.992188 9.339844,16.796875 9.179688,16.636719 9.066406,16.421875 9.015625,16.191406 9,16.0625 8.992188,15.917969 9,15.796875 9.015625,15.660156 9.042969,15.539062 9.082031,15.421875 9.136719,15.25 9.246094,15.054688 9.347656,14.90625 9.390625,14.839844 9.453125,14.738281 9.496094,14.6875 L 10,13.949219 0.328125,13.902344 0.34375,13.457031 h 0.453125 c 0,-0.02734 -0.007813,-0.07031 -0.015625,-0.113281 -0.003906,-0.167969 0.023438,-0.339844 0.082031,-0.484375 0.042969,-0.128906 0.105469,-0.242187 0.1875,-0.335937 0.078125,-0.08594 0.191407,-0.167969 0.308594,-0.222657 0.050781,-0.01563 0.113281,-0.04297 0.164063,-0.06641 L 6.914062,6.75 7.085938,6.550781 C 7.167969,6.457031 7.28125,6.320312 7.339844,6.21875 7.390625,6.125 7.4375,6.015625 7.460938,5.910156 7.476562,5.835938 7.476562,5.765625 7.46875,5.691406 7.453125,5.644531 7.445312,5.59375 7.433594,5.542969 7.390625,5.484375 7.332031,5.441406 7.28125,5.40625 7.230469,5.375 7.179688,5.355469 7.128906,5.339844 7.074219,5.324219 7.007812,5.332031 6.949219,5.332031 c -0.0625,-0.00781 -0.1875,0 -0.238281,0 C 6.429688,5.367188 6.136719,5.367188 5.871094,5.296875 5.589844,5.246094 5.324219,5.125 5.085938,4.945312 4.839844,4.777344 4.625,4.5625 4.480469,4.296875 4.316406,4.042969 4.214844,3.742188 4.179688,3.441406 4.148438,3.160156 4.15625,2.871094 4.242188,2.597656 4.316406,2.304688 4.445312,2.03125 4.625,1.785156 4.804688,1.554688 5.035156,1.367188 5.292969,1.230469 5.554688,1.085938 5.835938,0.992188 6.128906,0.957031 6.417969,0.9375 6.699219,0.949219 6.972656,1.03125 7.246094,1.101562 7.503906,1.246094 7.734375,1.417969 7.941406,1.589844 8.128906,1.804688 8.273438,2.03125 8.417969,2.28125 8.53125,2.5625 8.5625,2.855469 8.582031,3.050781 8.554688,3.28125 8.53125,3.46875 8.527344,3.546875 8.511719,3.683594 8.488281,3.757812 c 0.039063,0.00781 0.082031,0.00781 0.117188,0.00781 l 0.425781,0.00781 c 0.367188,0.00391 0.726562,0.054687 1.078125,0.140624 0.546875,0.128907 1.101563,0.355469 1.613281,0.613282 0.554688,0.28125 1.078125,0.625 1.582032,1 0.523437,0.402344 1.015624,0.886718 1.460937,1.351562 0.402344,0.425782 0.796875,0.894532 1.128906,1.367188 l 0.648438,0.929687 c 0.07813,0.121094 0.273437,0.410157 0.339843,0.53125 0.07813,0.136719 0.148438,0.289063 0.175782,0.449219 0.03125,0.113281 0.03125,0.257812 0.01563,0.378906 0,0.101563 0,0.210938 -0.02734,0.308594 -0.02344,0.160156 -0.07813,0.3125 -0.136719,0.441406 -0.02734,0.07813 -0.07813,0.15625 -0.109375,0.222656 -0.05859,0.105469 -0.128906,0.207032 -0.195312,0.300782 -0.05078,0.06641 -0.15625,0.1875 -0.207031,0.261718 l -1.257813,1.4375 9.238281,0.02734 0.0078,-1.09375 0.480469,0.03125 -0.01953,2.523438 -0.484375,-0.01172 0.0078,-0.980469 -9.691406,-0.05078 c -0.03516,0.03516 -0.08594,0.09375 -0.125,0.125 -0.04688,0.05078 -0.277344,0.273437 -0.316407,0.328125 -0.09766,0.117188 -0.1875,0.230469 -0.257812,0.367188 -0.03516,0.08594 -0.08594,0.195312 -0.09375,0.296874 -0.0078,0.05078 -0.0078,0.101563 0,0.15625 0.0078,0.08984 0.04297,0.167969 0.08594,0.230469 0.05859,0.08594 0.128906,0.144531 0.210938,0.1875 0.121094,0.07813 0.351562,0.1875 0.488281,0.238281 0.08594,0.03516 0.273437,0.101563 0.367187,0.152344 l 6.980469,3.199219 8.9375,-5.222656"
       id="path5758" />
    <path
       style="fill:#ffffff;fill-opacity:1;fill-rule:nonzero;stroke:none"
       d="m 10.3125,13.492188 -7.902344,-0.02734 c 0.019532,-0.03516 0.042969,-0.09375 0.066406,-0.128906 L 2.5625,13.175781 c 0.027344,-0.05859 0.050781,-0.105469 0.0625,-0.179687 0,-0.0078 0.023438,-0.105469 0.03125,-0.121094 0.011719,-0.04297 0.050781,-0.109375 0.070312,-0.128906 l 0.109376,-0.21875 c 0.050781,-0.07813 0.105468,-0.148438 0.171874,-0.222656 L 6.359375,9.382812 C 6.449219,9.304688 6.554688,9.226562 6.648438,9.160156 6.726562,9.101562 6.820312,9.03125 6.921875,8.980469 7.023438,8.929688 7.117188,8.894531 7.226562,8.867188 7.398438,8.824219 7.613281,8.824219 7.800781,8.824219 c 0.273438,0.00391 0.554688,0.027343 0.835938,0.0625 0.335937,0.050781 0.675781,0.125 0.992187,0.210937 0.335938,0.097656 0.710938,0.265625 1.019532,0.410156 0.238281,0.105469 0.648437,0.285157 0.878906,0.402344 0.125,0.0625 0.296875,0.15625 0.382812,0.257813 0.05078,0.06641 0.09375,0.144531 0.113282,0.230469 0.01562,0.06641 0.01562,0.121093 0.0078,0.1875 -0.0078,0.07031 -0.01953,0.144531 -0.05859,0.207031 -0.01172,0.06641 -0.05078,0.128906 -0.09375,0.179687 L 10.3125,13.492188"
       id="path5760" />
  </g>
</svg>

<?xml version="1.0" encoding="UTF-8"?>
<svg xmlns="http://www.w3.org/2000/svg" xmlns:xlink="http://www.w3.org/1999/xlink" width="32pt" height="30pt" viewBox="0 0 32 30" version="1.1">
<g id="surface1">
<path style=" stroke:none;fill-rule:nonzero;fill:rgb(13.729858%,12.159729%,12.548828%);fill-opacity:1;" d="M 30.957031 14.011719 L 31.324219 14.601562 L 6.648438 28.84375 C 6.589844 28.878906 6.476562 28.9375 6.425781 28.972656 C 6.257812 29.058594 6.078125 29.140625 5.898438 29.195312 C 5.699219 29.253906 5.480469 29.289062 5.28125 29.296875 C 5.042969 29.296875 4.820312 29.269531 4.589844 29.210938 C 4.417969 29.160156 4.25 29.09375 4.085938 29.007812 C 3.914062 28.914062 3.761719 28.808594 3.625 28.675781 C 3.53125 28.582031 3.4375 28.484375 3.351562 28.363281 C 3.324219 28.304688 3.265625 28.230469 3.230469 28.167969 L 3.769531 27.863281 C 3.796875 27.914062 3.839844 27.980469 3.871094 28.023438 C 3.976562 28.160156 4.105469 28.28125 4.242188 28.382812 C 4.410156 28.511719 4.605469 28.582031 4.804688 28.636719 C 4.964844 28.671875 5.121094 28.6875 5.28125 28.675781 C 5.410156 28.664062 5.5625 28.628906 5.675781 28.59375 C 5.8125 28.554688 5.964844 28.492188 6.101562 28.425781 L 6.359375 28.261719 L 17.15625 22.007812 L 16.96875 21.335938 C 16.953125 21.289062 16.945312 21.207031 16.9375 21.144531 C 16.929688 21.078125 16.929688 21.011719 16.953125 20.957031 C 16.960938 20.898438 16.972656 20.832031 16.996094 20.769531 C 17.023438 20.660156 17.089844 20.566406 17.175781 20.476562 C 17.226562 20.425781 17.261719 20.375 17.328125 20.335938 L 18.5 19.394531 L 11.101562 17.640625 L 10.871094 17.582031 C 10.726562 17.546875 10.535156 17.496094 10.398438 17.453125 C 10.246094 17.402344 10.101562 17.328125 9.964844 17.257812 C 9.742188 17.136719 9.511719 16.992188 9.339844 16.796875 C 9.179688 16.636719 9.066406 16.421875 9.015625 16.191406 C 9 16.0625 8.992188 15.917969 9 15.796875 C 9.015625 15.660156 9.042969 15.539062 9.082031 15.421875 C 9.136719 15.25 9.246094 15.054688 9.347656 14.90625 C 9.390625 14.839844 9.453125 14.738281 9.496094 14.6875 L 10 13.949219 L 0.328125 13.902344 L 0.34375 13.457031 L 0.796875 13.457031 C 0.796875 13.429688 0.789062 13.386719 0.78125 13.34375 C 0.777344 13.175781 0.804688 13.003906 0.863281 12.859375 C 0.90625 12.730469 0.96875 12.617188 1.050781 12.523438 C 1.128906 12.4375 1.242188 12.355469 1.359375 12.300781 C 1.410156 12.285156 1.472656 12.257812 1.523438 12.234375 L 6.914062 6.75 L 7.085938 6.550781 C 7.167969 6.457031 7.28125 6.320312 7.339844 6.21875 C 7.390625 6.125 7.4375 6.015625 7.460938 5.910156 C 7.476562 5.835938 7.476562 5.765625 7.46875 5.691406 C 7.453125 5.644531 7.445312 5.59375 7.433594 5.542969 C 7.390625 5.484375 7.332031 5.441406 7.28125 5.40625 C 7.230469 5.375 7.179688 5.355469 7.128906 5.339844 C 7.074219 5.324219 7.007812 5.332031 6.949219 5.332031 C 6.886719 5.324219 6.761719 5.332031 6.710938 5.332031 C 6.429688 5.367188 6.136719 5.367188 5.871094 5.296875 C 5.589844 5.246094 5.324219 5.125 5.085938 4.945312 C 4.839844 4.777344 4.625 4.5625 4.480469 4.296875 C 4.316406 4.042969 4.214844 3.742188 4.179688 3.441406 C 4.148438 3.160156 4.15625 2.871094 4.242188 2.597656 C 4.316406 2.304688 4.445312 2.03125 4.625 1.785156 C 4.804688 1.554688 5.035156 1.367188 5.292969 1.230469 C 5.554688 1.085938 5.835938 0.992188 6.128906 0.957031 C 6.417969 0.9375 6.699219 0.949219 6.972656 1.03125 C 7.246094 1.101562 7.503906 1.246094 7.734375 1.417969 C 7.941406 1.589844 8.128906 1.804688 8.273438 2.03125 C 8.417969 2.28125 8.53125 2.5625 8.5625 2.855469 C 8.582031 3.050781 8.554688 3.28125 8.53125 3.46875 C 8.527344 3.546875 8.511719 3.683594 8.488281 3.757812 C 8.527344 3.765625 8.570312 3.765625 8.605469 3.765625 L 9.03125 3.773438 C 9.398438 3.777344 9.757812 3.828125 10.109375 3.914062 C 10.65625 4.042969 11.210938 4.269531 11.722656 4.527344 C 12.277344 4.808594 12.800781 5.152344 13.304688 5.527344 C 13.828125 5.929688 14.320312 6.414062 14.765625 6.878906 C 15.167969 7.304688 15.5625 7.773438 15.894531 8.246094 L 16.542969 9.175781 C 16.621094 9.296875 16.816406 9.585938 16.882812 9.707031 C 16.960938 9.84375 17.03125 9.996094 17.058594 10.15625 C 17.089844 10.269531 17.089844 10.414062 17.074219 10.535156 C 17.074219 10.636719 17.074219 10.746094 17.046875 10.84375 C 17.023438 11.003906 16.96875 11.15625 16.910156 11.285156 C 16.882812 11.363281 16.832031 11.441406 16.800781 11.507812 C 16.742188 11.613281 16.671875 11.714844 16.605469 11.808594 C 16.554688 11.875 16.449219 11.996094 16.398438 12.070312 L 15.140625 13.507812 L 24.378906 13.535156 L 24.386719 12.441406 L 24.867188 12.472656 L 24.847656 14.996094 L 24.363281 14.984375 L 24.371094 14.003906 L 14.679688 13.953125 C 14.644531 13.988281 14.59375 14.046875 14.554688 14.078125 C 14.507812 14.128906 14.277344 14.351562 14.238281 14.40625 C 14.140625 14.523438 14.050781 14.636719 13.980469 14.773438 C 13.945312 14.859375 13.894531 14.96875 13.886719 15.070312 C 13.878906 15.121094 13.878906 15.171875 13.886719 15.226562 C 13.894531 15.316406 13.929688 15.394531 13.972656 15.457031 C 14.03125 15.542969 14.101562 15.601562 14.183594 15.644531 C 14.304688 15.722656 14.535156 15.832031 14.671875 15.882812 C 14.757812 15.917969 14.945312 15.984375 15.039062 16.035156 L 22.019531 19.234375 L 30.957031 14.011719 "/>
<path style=" stroke:none;fill-rule:nonzero;fill:rgb(100%,100%,100%);fill-opacity:1;" d="M 10.3125 13.492188 L 2.410156 13.464844 C 2.429688 13.429688 2.453125 13.371094 2.476562 13.335938 L 2.5625 13.175781 C 2.589844 13.117188 2.613281 13.070312 2.625 12.996094 C 2.625 12.988281 2.648438 12.890625 2.65625 12.875 C 2.667969 12.832031 2.707031 12.765625 2.726562 12.746094 L 2.835938 12.527344 C 2.886719 12.449219 2.941406 12.378906 3.007812 12.304688 L 6.359375 9.382812 C 6.449219 9.304688 6.554688 9.226562 6.648438 9.160156 C 6.726562 9.101562 6.820312 9.03125 6.921875 8.980469 C 7.023438 8.929688 7.117188 8.894531 7.226562 8.867188 C 7.398438 8.824219 7.613281 8.824219 7.800781 8.824219 C 8.074219 8.828125 8.355469 8.851562 8.636719 8.886719 C 8.972656 8.9375 9.3125 9.011719 9.628906 9.097656 C 9.964844 9.195312 10.339844 9.363281 10.648438 9.507812 C 10.886719 9.613281 11.296875 9.792969 11.527344 9.910156 C 11.652344 9.972656 11.824219 10.066406 11.910156 10.167969 C 11.960938 10.234375 12.003906 10.3125 12.023438 10.398438 C 12.039062 10.464844 12.039062 10.519531 12.03125 10.585938 C 12.023438 10.65625 12.011719 10.730469 11.972656 10.792969 C 11.960938 10.859375 11.921875 10.921875 11.878906 10.972656 L 10.3125 13.492188 "/>
</g>
</svg>
